32x32/apps/openage.svg

<svg height="32" width="32" xmlns="http://www.w3.org/2000/svg"><path d="m16 3c-7.756 0-14 6.244-14 14s6.244 14 14 14 14-6.244 14-14-6.244-14-14-14z" opacity=".2"/><path d="m16 2c-7.756 0-14 6.244-14 14s6.244 14 14 14 14-6.244 14-14-6.244-14-14-14z" fill="#4f4f4f"/><path d="m9 8v8.308c0 1.843.743 3.619 2 4.692l-2 3c2.036 1.457 4.486 2 7 2s4.964-.543 7-2l-2-3c1.257-1.073 2-2.849 2-4.692v-8.308h-2.8v3.324c-.563-.337-1.164-.974-2.2-1.155v-2.169h-4v2.169c-.5.098-1.637.818-2.2 1.155v-3.324zm7 5c1.887 0 2.8.392 4 1.084v2.916c0 1.756-2.6 3.308-4 4-1.4-.692-4-2.244-4-4v-2.916c1.2-.692 2.113-1.084 4-1.084z" opacity=".2"/><g fill="#f4f4f7"><path d="m9 7v8.308c0 1.843.743 3.619 2 4.692l-2 3c2.036 1.457 4.486 2 7 2s4.964-.543 7-2l-2-3c1.257-1.073 2-2.849 2-4.692v-8.308h-2.8v3.324c-.563-.337-1.164-.974-2.2-1.155v-2.169h-4v2.169c-.5.098-1.637.818-2.2 1.155v-3.324zm7 5c1.887 0 2.8.392 4 1.084v2.916c0 1.756-2.6 3.308-4 4-1.4-.692-4-2.244-4-4v-2.916c1.2-.692 2.113-1.084 4-1.084z"/><path d="m16 2c-7.756 0-14 6.244-14 14 0 .169.02.333.025.5.265-7.52 6.388-13.5 13.975-13.5" opacity=".1"/></g></svg>

<svg xmlns="http://www.w3.org/2000/svg" width="32" height="32" version="1"><path style="opacity:.2" d="M16 3C8.244 3 2 9.244 2 17s6.244 14 14 14 14-6.244 14-14S23.756 3 16 3z"/><path style="fill:#4f4f4f" d="M16 2C8.244 2 2 8.244 2 16s6.244 14 14 14 14-6.244 14-14S23.756 2 16 2z"/><path style="opacity:.2" d="M9 8v8.308c0 1.843.743 3.619 2 4.692l-2 3c2.036 1.457 4.486 2 7 2 2.514 0 4.964-.543 7-2l-2-3c1.257-1.073 2-2.849 2-4.692V8h-2.8v3.324c-.563-.337-1.164-.974-2.2-1.155V8h-4v2.169c-.5.098-1.637.818-2.2 1.155V8zm7 5c1.887 0 2.8.392 4 1.084V17c0 1.756-2.6 3.308-4 4-1.4-.692-4-2.244-4-4v-2.916C13.2 13.392 14.113 13 16 13z"/><path style="fill:#f4f4f7" d="M9 7v8.308c0 1.843.743 3.619 2 4.692l-2 3c2.036 1.457 4.486 2 7 2 2.514 0 4.964-.543 7-2l-2-3c1.257-1.073 2-2.849 2-4.692V7h-2.8v3.324c-.563-.337-1.164-.974-2.2-1.155V7h-4v2.169c-.5.098-1.637.818-2.2 1.155V7zm7 5c1.887 0 2.8.392 4 1.084V16c0 1.756-2.6 3.308-4 4-1.4-.692-4-2.244-4-4v-2.916C13.2 12.392 14.113 12 16 12z"/><path style="fill:#f4f4f7;opacity:.1" d="M16 2C8.244 2 2 8.244 2 16c0 .169.02.333.025.5C2.29 8.98 8.413 3 16 3"/></svg>
